X:371
T: WENN ICH EIN BLUEMLEIN SCHAU
N: B0442
O: Europa, Mitteleuropa, Deutschland
R: Liebes - Lied, Frust
M: 3/4
L: 1/16
K: Bb
 | F6G2F4 | B8d2c2 | B12
F6G2F4 | c8e2d2 | c8z4
B6A2G4 | c6B2A4 | G4G4c4 | A6G2F4
d8B2B2 | G12 | c8A3A | B8z4

